share/icons/Flat-Remix-Blue-Dark/mimetypes/scalable/text-x-vcard.svg

<svg xmlns="http://www.w3.org/2000/svg" xmlns:xlink="http://www.w3.org/1999/xlink" width="36pt" height="36pt" version="1.1" viewBox="0 0 36 36"> <defs> <symbol id="glyph0-1" overflow="visible"> <path d="M 6.640625 -4.296875 C 6.640625 -3.640625 6.78125 -3.125 7.0625 -2.75 C 7.34375 -2.375 7.722656 -2.1875 8.203125 -2.1875 C 8.671875 -2.1875 9.046875 -2.375 9.328125 -2.75 C 9.609375 -3.132812 9.75 -3.648438 9.75 -4.296875 C 9.75 -4.941406 9.609375 -5.453125 9.328125 -5.828125 C 9.046875 -6.203125 8.664062 -6.390625 8.1875 -6.390625 C 7.71875 -6.390625 7.34375 -6.203125 7.0625 -5.828125 C 6.78125 -5.453125 6.640625 -4.941406 6.640625 -4.296875 Z M 9.90625 -1.90625 C 9.75 -1.519531 9.492188 -1.222656 9.140625 -1.015625 C 8.785156 -0.804688 8.375 -0.703125 7.90625 -0.703125 C 6.988281 -0.703125 6.242188 -1.03125 5.671875 -1.6875 C 5.097656 -2.351562 4.8125 -3.21875 4.8125 -4.28125 C 4.8125 -5.34375 5.097656 -6.207031 5.671875 -6.875 C 6.242188 -7.539062 6.988281 -7.875 7.90625 -7.875 C 8.375 -7.875 8.785156 -7.765625 9.140625 -7.546875 C 9.492188 -7.335938 9.75 -7.046875 9.90625 -6.671875 L 9.90625 -7.71875 L 11.578125 -7.71875 L 11.578125 -2.1875 C 12.242188 -2.289062 12.765625 -2.609375 13.140625 -3.140625 C 13.515625 -3.671875 13.703125 -4.351562 13.703125 -5.1875 C 13.703125 -5.726562 13.625 -6.226562 13.46875 -6.6875 C 13.320312 -7.15625 13.085938 -7.582031 12.765625 -7.96875 C 12.265625 -8.625 11.632812 -9.125 10.875 -9.46875 C 10.113281 -9.820312 9.289062 -10 8.40625 -10 C 7.789062 -10 7.203125 -9.914062 6.640625 -9.75 C 6.078125 -9.59375 5.554688 -9.359375 5.078125 -9.046875 C 4.285156 -8.523438 3.671875 -7.847656 3.234375 -7.015625 C 2.796875 -6.191406 2.578125 -5.296875 2.578125 -4.328125 C 2.578125 -3.535156 2.71875 -2.789062 3 -2.09375 C 3.28125 -1.40625 3.691406 -0.796875 4.234375 -0.265625 C 4.765625 0.253906 5.375 0.648438 6.0625 0.921875 C 6.75 1.203125 7.488281 1.34375 8.28125 1.34375 C 8.945312 1.34375 9.613281 1.21875 10.28125 0.96875 C 10.957031 0.71875 11.53125 0.378906 12 -0.046875 L 12.859375 1.25 C 12.191406 1.757812 11.460938 2.148438 10.671875 2.421875 C 9.890625 2.703125 9.097656 2.84375 8.296875 2.84375 C 7.304688 2.84375 6.375 2.664062 5.5 2.3125 C 4.625 1.96875 3.847656 1.460938 3.171875 0.796875 C 2.492188 0.128906 1.972656 -0.640625 1.609375 -1.515625 C 1.253906 -2.390625 1.078125 -3.328125 1.078125 -4.328125 C 1.078125 -5.296875 1.257812 -6.21875 1.625 -7.09375 C 1.988281 -7.976562 2.503906 -8.753906 3.171875 -9.421875 C 3.835938 -10.078125 4.617188 -10.582031 5.515625 -10.9375 C 6.410156 -11.300781 7.335938 -11.484375 8.296875 -11.484375 C 9.484375 -11.484375 10.5625 -11.253906 11.53125 -10.796875 C 12.507812 -10.347656 13.328125 -9.695312 13.984375 -8.84375 C 14.390625 -8.320312 14.691406 -7.753906 14.890625 -7.140625 C 15.097656 -6.535156 15.203125 -5.898438 15.203125 -5.234375 C 15.203125 -3.785156 14.765625 -2.660156 13.890625 -1.859375 C 13.023438 -1.066406 11.800781 -0.671875 10.21875 -0.671875 L 9.90625 -0.671875 Z M 9.90625 -1.90625"/> </symbol> <clipPath id="clip1"> <path d="M 20 2 L 31 2 L 31 13 L 20 13 Z M 20 2"/> </clipPath> <clipPath id="clip2"> <path d="M 20.515625 2.625 L 30.328125 12.4375 L 22.023438 12.4375 C 21.292969 12.4375 20.515625 11.660156 20.515625 10.929688 Z M 20.515625 2.625"/> </clipPath> <image id="image6" width="36" height="36" xlink:href="data:image/png;base64,iVBORw0KGgoAAAANSUhEUgAAACQAAAAkCAYAAADhAJiYAAAABmJLR0QA/wD/AP+gvaeTAAAAmklEQVRYhe3T0QqCQBBG4aOtYEoUvf9Lildltl00C4tkbBeTIP+BAUEYP1YW1Pcqh53B9kbgaVPcwQF0tAmGSrMZ6AKcDQXw+AUVHEAtcAUaewYYgYmC3+cBCkAPnDJQMcoDVNnebgEqQnmAclTz4d0I3P4JStc9AjXvk4qLWQV53LLeEOl05gw4A3dgcPiuUkoppZRSSqk99gLWvSJpuDnlsAAAAABJRU5ErkJggg=="/> </defs> <g> <path style="fill:rgb(90.196%,90.196%,90.196%)" d="M 7.347656 3.152344 C 6.675781 3.152344 6.042969 3.785156 6.042969 4.457031 L 6.042969 31.847656 C 6.042969 32.480469 6.714844 33.152344 7.347656 33.152344 L 28.21875 33.152344 C 28.851562 33.152344 29.523438 32.480469 29.523438 31.847656 L 29.523438 11.632812 L 21.042969 3.152344 Z M 7.347656 3.152344"/> <g clip-path="url(#clip1)"> <g clip-path="url(#clip2)"> <use xlink:href="#image6"/> </g> </g> <path style="fill:rgb(100.000%,100.000%,100.000%)" d="M 21.042969 3.152344 L 29.523438 11.632812 L 22.347656 11.632812 C 21.714844 11.632812 21.042969 10.960938 21.042969 10.328125 Z M 21.042969 3.152344"/> <g style="fill:rgb(0%,0%,0%);fill-opacity:0.352941"> <use x="10.66" y="24.6" xlink:href="#glyph0-1"/> </g> </g> </svg>

<svg width="36pt" height="36pt" version="1.1" viewBox="0 0 36 36" xmlns="http://www.w3.org/2000/svg" xmlns:xlink="http://www.w3.org/1999/xlink"><defs><symbol id="b" overflow="visible"><path d="m6.6406-4.2969c0 0.65625 0.14062 1.1719 0.42188 1.5469s0.66016 0.5625 1.1406 0.5625c0.46875 0 0.84375-0.1875 1.125-0.5625 0.28125-0.38281 0.42188-0.89844 0.42188-1.5469 0-0.64453-0.14062-1.1562-0.42188-1.5312s-0.66406-0.5625-1.1406-0.5625c-0.46875 0-0.84375 0.1875-1.125 0.5625s-0.42188 0.88672-0.42188 1.5312zm3.2656 2.3906c-0.15625 0.38672-0.41406 0.68359-0.76562 0.89062-0.35547 0.21094-0.76562 0.3125-1.2344 0.3125-0.91797 0-1.6641-0.32812-2.2344-0.98438-0.57422-0.66406-0.85938-1.5312-0.85938-2.5938s0.28516-1.9258 0.85938-2.5938c0.57031-0.66406 1.3164-1 2.2344-1 0.46875 0 0.87891 0.10938 1.2344 0.32812 0.35156 0.21094 0.60938 0.5 0.76562 0.875v-1.0469h1.6719v5.5312c0.66406-0.10156 1.1875-0.42188 1.5625-0.95312s0.5625-1.2109 0.5625-2.0469c0-0.53906-0.078125-1.0391-0.23438-1.5-0.14844-0.46875-0.38281-0.89453-0.70312-1.2812-0.5-0.65625-1.1328-1.1562-1.8906-1.5-0.76172-0.35156-1.5859-0.53125-2.4688-0.53125-0.61719 0-1.2031 0.085938-1.7656 0.25-0.5625 0.15625-1.0859 0.39062-1.5625 0.70312-0.79297 0.52344-1.4062 1.1992-1.8438 2.0312-0.4375 0.82422-0.65625 1.7188-0.65625 2.6875 0 0.79297 0.14062 1.5391 0.42188 2.2344 0.28125 0.6875 0.69141 1.2969 1.2344 1.8281 0.53125 0.51953 1.1406 0.91406 1.8281 1.1875 0.6875 0.28125 1.4258 0.42188 2.2188 0.42188 0.66406 0 1.332-0.125 2-0.375 0.67578-0.25 1.25-0.58984 1.7188-1.0156l0.85938 1.2969c-0.66797 0.50781-1.3984 0.89844-2.1875 1.1719-0.78125 0.28125-1.5742 0.42188-2.375 0.42188-0.99219 0-1.9219-0.17969-2.7969-0.53125-0.875-0.34375-1.6523-0.85156-2.3281-1.5156-0.67969-0.66797-1.1992-1.4375-1.5625-2.3125-0.35547-0.875-0.53125-1.8125-0.53125-2.8125 0-0.96875 0.17969-1.8906 0.54688-2.7656 0.36328-0.88281 0.87891-1.6602 1.5469-2.3281 0.66406-0.65625 1.4453-1.1602 2.3438-1.5156 0.89453-0.36328 1.8203-0.54688 2.7812-0.54688 1.1875 0 2.2656 0.23047 3.2344 0.6875 0.97656 0.44922 1.7969 1.1016 2.4531 1.9531 0.40625 0.52344 0.70703 1.0898 0.90625 1.7031 0.20703 0.60547 0.3125 1.2422 0.3125 1.9062 0 1.4492-0.4375 2.5742-1.3125 3.375-0.86719 0.79297-2.0898 1.1875-3.6719 1.1875h-0.3125z"/></symbol><filter id="a" x="-.192" y="-.192" width="1.384" height="1.384" color-interpolation-filters="sRGB"><feGaussianBlur stdDeviation="0.67843748"/></filter></defs><path d="m7.3477 3.9022c-0.67188 0-1.3047 0.63281-1.3047 1.3047v27.391c0 0.63281 0.67188 1.3047 1.3047 1.3047h20.871c0.63281 0 1.3047-0.67188 1.3047-1.3047v-20.215l-8.4805-8.4805z" opacity=".3"/><path d="m7.3477 3.1523c-0.67188 0-1.3047 0.63281-1.3047 1.3047v27.391c0 0.63281 0.67188 1.3047 1.3047 1.3047h20.871c0.63281 0 1.3047-0.67188 1.3047-1.3047v-20.215l-8.4805-8.4805z" fill="#e5e5e5"/><path d="m20.668 3.5272 8.4805 8.4805h-7.1758c-0.63281 0-1.3047-0.67187-1.3047-1.3047z" filter="url(#a)" opacity=".2"/><path d="m21.043 3.1523 8.4805 8.4805h-7.1758c-0.63281 0-1.3047-0.67187-1.3047-1.3047z" fill="#fff"/><g fill-opacity=".35294"><use transform="translate(-1.0174)" x="10.66" y="24.6" width="100%" height="100%" xlink:href="#b"/></g></svg>
